Dominus_Dark_Funeral/scalable/apps/rawtherapee.svg

<?xml version="1.0" encoding="UTF-8" standalone="no"?><svg xmlns:dc="http://purl.org/dc/elements/1.1/" xmlns:cc="http://creativecommons.org/ns#" xmlns:rdf="http://www.w3.org/1999/02/22-rdf-syntax-ns#" xmlns="http://www.w3.org/2000/svg" xmlns:xlink="http://www.w3.org/1999/xlink" width="48" height="48" viewBox="0 0 12.7 12.7"><metadata><rdf:RDF><cc:Work><dc:format>image/svg+xml</dc:format><dc:type rdf:resource="http://purl.org/dc/dcmitype/StillImage"/><dc:title/></cc:Work></rdf:RDF></metadata><defs><linearGradient id="h"><stop offset="0" stop-color="#d74845"/><stop offset="1" stop-color="#d74845" stop-opacity="0"/></linearGradient><linearGradient id="g"><stop offset="0" stop-color="#e98928"/><stop offset="1" stop-color="#e98928" stop-opacity="0"/></linearGradient><linearGradient id="f"><stop offset="0" stop-color="#e0ad2f"/><stop offset="1" stop-color="#e0ad2f" stop-opacity="0"/></linearGradient><linearGradient id="e"><stop offset="0" stop-color="#4fae53" stop-opacity="0"/><stop offset="1" stop-color="#4fae53"/></linearGradient><linearGradient id="d"><stop offset="0" stop-color="#479ae1" stop-opacity="0"/><stop offset="1" stop-color="#479ae1"/></linearGradient><linearGradient id="c"><stop offset="0" stop-color="#a458b8"/><stop offset="1" stop-color="#a458b8" stop-opacity="0"/></linearGradient><linearGradient id="a"><stop offset="0"/><stop offset="1" stop-opacity="0"/></linearGradient><linearGradient id="b"><stop offset="0" stop-color="#515151"/><stop offset=".2" stop-color="#2b2b2b"/><stop offset=".53" stop-color="#1b1b1b"/><stop offset="1"/></linearGradient><linearGradient xlink:href="#c" id="j" x1="4.8" y1=".31" x2="6.36" y2="5.87" gradientUnits="userSpaceOnUse" gradientTransform="matrix(-1 0 0 1 12.69 0)"/><linearGradient xlink:href="#d" id="k" x1="6.36" y1="5.87" x2="11.23" y2="1.81" gradientUnits="userSpaceOnUse" gradientTransform="matrix(-1 0 0 1 12.69 0)"/><linearGradient xlink:href="#e" id="l" x1="6.36" y1="5.87" x2="11.65" y2="6.86" gradientUnits="userSpaceOnUse" gradientTransform="matrix(-1 0 0 1 12.69 0)"/><linearGradient xlink:href="#f" id="m" x1="6.35" y1="12.61" x2="6.36" y2="5.87" gradientUnits="userSpaceOnUse" gradientTransform="matrix(-1 0 0 1 12.69 0)"/><linearGradient xlink:href="#g" id="n" x1="2.2" y1="9.12" x2="6.36" y2="5.87" gradientUnits="userSpaceOnUse" gradientTransform="matrix(-1 0 0 1 12.69 0)"/><linearGradient xlink:href="#h" id="i" x1="1" y1="4.32" x2="6.36" y2="4.32" gradientUnits="userSpaceOnUse" gradientTransform="matrix(-1 0 0 1 12.69 0)"/></defs><path d="M6.34.1c1.54 0 2.78.29 3.69.87a3.67 3.67 0 0 1 1.66 3.25c0 1.91-1.54 4.47-2.01 5.2-.54.85-1.13 1.61-1.65 2.16-.68.7-1.21 1.03-1.7 1.03-.47 0-1-.33-1.68-1.03A15.2 15.2 0 0 1 3 9.43c-.47-.74-2-3.3-2-5.21C1 2.8 1.57 1.68 2.65.97A6.75 6.75 0 0 1 6.34.09z" fill="#fff"/><path d="M10.7 1.53a3.67 3.67 0 0 1 .14.17 3.67 3.67 0 0 1 .22.3 3.67 3.67 0 0 1 .2.3 3.67 3.67 0 0 1 .15.34 3.67 3.67 0 0 1 .12.34 3.67 3.67 0 0 1 .1.36 3.67 3.67 0 0 1 .04.36 3.67 3.67 0 0 1 .02.37 3.67 3.67 0 0 1 0 .15c0 .48-.1 1-.25 1.52-.14.46-.33.92-.52 1.36l-4.6-1.23 3.1-3.07z" fill="url(#i)"/><path d="M4.8.2a6.75 6.75 0 0 1 .4-.07 6.75 6.75 0 0 1 .67-.05 6.75 6.75 0 0 1 .47.01V.1C7.1.1 7.8.17 8.42.32a5.9 5.9 0 0 1 1.6.65 3.67 3.67 0 0 1 .3.22 3.67 3.67 0 0 1 .28.24 3.67 3.67 0 0 1 .1.1L6.32 5.87z" fill="url(#j)"/><path d="M1.03 4.46L1 4.22a3.74 3.74 0 0 1 .94-2.64c.2-.23.44-.43.7-.61a6.75 6.75 0 0 1 .6-.3 6.75 6.75 0 0 1 .64-.25 6.75 6.75 0 0 1 .65-.18A6.75 6.75 0 0 1 4.8.2l1.53 5.67z" fill="url(#k)"/><path d="M2.91 9.27c-.25-.4-.68-1.1-1.09-2-.22-.5-.43-1.01-.58-1.53a5.76 5.76 0 0 1-.2-1.28l5.29 1.41z" fill="url(#l)"/><path d="M7.9 11.7c-.29.27-.56.51-.8.66-.27.17-.52.25-.76.25s-.5-.08-.77-.25a4.94 4.94 0 0 1-.92-.78A15.2 15.2 0 0 1 3 9.43l-.09-.16 3.42-3.4z" fill="url(#m)"/><path d="M10.92 7.1l-.06.16a18.1 18.1 0 0 1-2.83 4.32l-.14.11-1.56-5.82z" fill="url(#n)"/><path d="M6.34.1c1.54 0 2.78.29 3.69.87a3.67 3.67 0 0 1 1.66 3.25c0 1.91-1.54 4.47-2.01 5.2-.54.85-1.13 1.61-1.65 2.16-.68.7-1.21 1.03-1.7 1.03-.47 0-1-.33-1.68-1.03A15.2 15.2 0 0 1 3 9.43c-.47-.74-2-3.3-2-5.21C1 2.8 1.57 1.68 2.65.97A6.75 6.75 0 0 1 6.34.09zm0 .03c-.56.02-1.1.07-1.55.18a5.82 5.82 0 0 0-1.6.66 3.65 3.65 0 0 0-1.24 1.36 3.7 3.7 0 0 0-.32.88 4.61 4.61 0 0 0 .14 2.53c.15.52.36 1.04.58 1.52.44.97.95 1.8 1.18 2.17.54.84 1.13 1.6 1.65 2.15.34.35.64.61.92.78a.96.96 0 0 0 .24.1.96.96 0 0 0 .24-.1 4.76 4.76 0 0 0 .92-.78 14.41 14.41 0 0 0 1.65-2.15c.23-.37.74-1.2 1.18-2.17.22-.48.43-1 .58-1.52a4.6 4.6 0 0 0 .14-2.52 3.73 3.73 0 0 0-.84-1.64 3.65 3.65 0 0 0-1.45-1A6.83 6.83 0 0 0 6.34.13z" opacity=".2"/><ellipse ry="1.03" rx="1.02" cy="5.88" cx="6.31" fill="#4d4d4d"/></svg>

<?xml version="1.0" encoding="UTF-8" standalone="no"?>
<svg
   xmlns:dc="http://purl.org/dc/elements/1.1/"
   xmlns:cc="http://creativecommons.org/ns#"
   xmlns:rdf="http://www.w3.org/1999/02/22-rdf-syntax-ns#"
   xmlns:svg="http://www.w3.org/2000/svg"
   xmlns="http://www.w3.org/2000/svg"
   xmlns:xlink="http://www.w3.org/1999/xlink"
   xmlns:sodipodi="http://sodipodi.sourceforge.net/DTD/sodipodi-0.dtd"
   xmlns:inkscape="http://www.inkscape.org/namespaces/inkscape"
   width="48"
   height="48"
   viewBox="0 0 12.7 12.7"
   version="1.1"
   id="svg74"
   sodipodi:docname="rawtherapee.svg"
   inkscape:version="0.92.4 (5da689c313, 2019-01-14)">
  <sodipodi:namedview
     pagecolor="#ffffff"
     bordercolor="#666666"
     borderopacity="1"
     objecttolerance="10"
     gridtolerance="10"
     guidetolerance="10"
     inkscape:pageopacity="0"
     inkscape:pageshadow="2"
     inkscape:window-width="1112"
     inkscape:window-height="480"
     id="namedview76"
     showgrid="false"
     inkscape:zoom="4.9166667"
     inkscape:cx="2.1355932"
     inkscape:cy="24"
     inkscape:window-x="0"
     inkscape:window-y="25"
     inkscape:window-maximized="0"
     inkscape:current-layer="svg74" />
  <metadata
     id="metadata2">
    <rdf:RDF>
      <cc:Work>
        <dc:format>image/svg+xml</dc:format>
        <dc:type
           rdf:resource="http://purl.org/dc/dcmitype/StillImage" />
        <dc:title></dc:title>
      </cc:Work>
    </rdf:RDF>
  </metadata>
  <defs
     id="defs54">
    <linearGradient
       id="h">
      <stop
         offset="0"
         stop-color="#d74845"
         id="stop4" />
      <stop
         offset="1"
         stop-color="#d74845"
         stop-opacity="0"
         id="stop6" />
    </linearGradient>
    <linearGradient
       id="g">
      <stop
         offset="0"
         stop-color="#e98928"
         id="stop9" />
      <stop
         offset="1"
         stop-color="#e98928"
         stop-opacity="0"
         id="stop11" />
    </linearGradient>
    <linearGradient
       id="f">
      <stop
         offset="0"
         stop-color="#e0ad2f"
         id="stop14" />
      <stop
         offset="1"
         stop-color="#e0ad2f"
         stop-opacity="0"
         id="stop16" />
    </linearGradient>
    <linearGradient
       id="e">
      <stop
         offset="0"
         stop-color="#4fae53"
         stop-opacity="0"
         id="stop19" />
      <stop
         offset="1"
         stop-color="#4fae53"
         id="stop21" />
    </linearGradient>
    <linearGradient
       id="d">
      <stop
         offset="0"
         stop-color="#479ae1"
         stop-opacity="0"
         id="stop24" />
      <stop
         offset="1"
         stop-color="#479ae1"
         id="stop26" />
    </linearGradient>
    <linearGradient
       id="c">
      <stop
         offset="0"
         stop-color="#a458b8"
         id="stop29" />
      <stop
         offset="1"
         stop-color="#a458b8"
         stop-opacity="0"
         id="stop31" />
    </linearGradient>
    <linearGradient
       id="a">
      <stop
         offset="0"
         id="stop34" />
      <stop
         offset="1"
         stop-opacity="0"
         id="stop36" />
    </linearGradient>
    <linearGradient
       id="b">
      <stop
         offset="0"
         stop-color="#515151"
         id="stop39" />
      <stop
         offset=".2"
         stop-color="#2b2b2b"
         id="stop41" />
      <stop
         offset=".53"
         stop-color="#1b1b1b"
         id="stop43" />
      <stop
         offset="1"
         id="stop45" />
    </linearGradient>
    <linearGradient
       xlink:href="#c"
       id="j"
       x1="4.8"
       y1=".31"
       x2="6.36"
       y2="5.87"
       gradientUnits="userSpaceOnUse"
       gradientTransform="matrix(-1,0,0,1,12.69,0)" />
    <linearGradient
       xlink:href="#d"
       id="k"
       x1="6.36"
       y1="5.87"
       x2="11.23"
       y2="1.81"
       gradientUnits="userSpaceOnUse"
       gradientTransform="matrix(-1,0,0,1,12.69,0)" />
    <linearGradient
       xlink:href="#e"
       id="l"
       x1="6.36"
       y1="5.87"
       x2="11.65"
       y2="6.86"
       gradientUnits="userSpaceOnUse"
       gradientTransform="matrix(-1,0,0,1,12.69,0)" />
    <linearGradient
       xlink:href="#f"
       id="m"
       x1="6.35"
       y1="12.61"
       x2="6.36"
       y2="5.87"
       gradientUnits="userSpaceOnUse"
       gradientTransform="matrix(-1,0,0,1,12.69,0)" />
    <linearGradient
       xlink:href="#g"
       id="n"
       x1="2.2"
       y1="9.12"
       x2="6.36"
       y2="5.87"
       gradientUnits="userSpaceOnUse"
       gradientTransform="matrix(-1,0,0,1,12.69,0)" />
    <linearGradient
       xlink:href="#h"
       id="i"
       x1="1"
       y1="4.32"
       x2="6.36"
       y2="4.32"
       gradientUnits="userSpaceOnUse"
       gradientTransform="matrix(-1,0,0,1,12.69,0)" />
  </defs>
  <path
     d="m 6.34,0.1 c 1.54,0 2.78,0.29 3.69,0.87 a 3.67,3.67 0 0 1 1.66,3.25 c 0,1.91 -1.54,4.47 -2.01,5.2 -0.54,0.85 -1.13,1.61 -1.65,2.16 -0.68,0.7 -1.21,1.03 -1.7,1.03 -0.47,0 -1,-0.33 -1.68,-1.03 A 15.2,15.2 0 0 1 3,9.43 C 2.53,8.69 1,6.13 1,4.22 1,2.8 1.57,1.68 2.65,0.97 A 6.75,6.75 0 0 1 6.34,0.09 Z"
     id="path56"
     inkscape:connector-curvature="0"
     style="fill:#ffffff" />
  <path
     d="m 10.7,1.53 a 3.67,3.67 0 0 1 0.14,0.17 3.67,3.67 0 0 1 0.22,0.3 3.67,3.67 0 0 1 0.2,0.3 3.67,3.67 0 0 1 0.15,0.34 3.67,3.67 0 0 1 0.12,0.34 3.67,3.67 0 0 1 0.1,0.36 3.67,3.67 0 0 1 0.04,0.36 3.67,3.67 0 0 1 0.02,0.37 3.67,3.67 0 0 1 0,0.15 c 0,0.48 -0.1,1 -0.25,1.52 C 11.3,6.2 11.11,6.66 10.92,7.1 L 6.32,5.87 9.42,2.8 Z"
     id="path58"
     style="fill:url(#i)"
     inkscape:connector-curvature="0" />
  <path
     d="M 4.8,0.2 A 6.75,6.75 0 0 1 5.2,0.13 6.75,6.75 0 0 1 5.87,0.08 6.75,6.75 0 0 1 6.34,0.09 V 0.1 c 0.76,0 1.46,0.07 2.08,0.22 a 5.9,5.9 0 0 1 1.6,0.65 3.67,3.67 0 0 1 0.3,0.22 3.67,3.67 0 0 1 0.28,0.24 3.67,3.67 0 0 1 0.1,0.1 L 6.32,5.87 Z"
     id="path60"
     style="fill:url(#j)"
     inkscape:connector-curvature="0" />
  <path
     d="M 1.03,4.46 1,4.22 A 3.74,3.74 0 0 1 1.94,1.58 C 2.14,1.35 2.38,1.15 2.64,0.97 A 6.75,6.75 0 0 1 3.24,0.67 6.75,6.75 0 0 1 3.88,0.42 6.75,6.75 0 0 1 4.53,0.24 6.75,6.75 0 0 1 4.8,0.2 l 1.53,5.67 z"
     id="path62"
     style="fill:url(#k)"
     inkscape:connector-curvature="0" />
  <path
     d="M 2.91,9.27 C 2.66,8.87 2.23,8.17 1.82,7.27 1.6,6.77 1.39,6.26 1.24,5.74 A 5.76,5.76 0 0 1 1.04,4.46 l 5.29,1.41 z"
     id="path64"
     style="fill:url(#l)"
     inkscape:connector-curvature="0" />
  <path
     d="m 7.9,11.7 c -0.29,0.27 -0.56,0.51 -0.8,0.66 -0.27,0.17 -0.52,0.25 -0.76,0.25 -0.24,0 -0.5,-0.08 -0.77,-0.25 A 4.94,4.94 0 0 1 4.65,11.58 15.2,15.2 0 0 1 3,9.43 L 2.91,9.27 6.33,5.87 Z"
     id="path66"
     style="fill:url(#m)"
     inkscape:connector-curvature="0" />
  <path
     d="M 10.92,7.1 10.86,7.26 A 18.1,18.1 0 0 1 8.03,11.58 L 7.89,11.69 6.33,5.87 Z"
     id="path68"
     style="fill:url(#n)"
     inkscape:connector-curvature="0" />
  <path
     d="m 6.34,0.1 c 1.54,0 2.78,0.29 3.69,0.87 a 3.67,3.67 0 0 1 1.66,3.25 c 0,1.91 -1.54,4.47 -2.01,5.2 -0.54,0.85 -1.13,1.61 -1.65,2.16 -0.68,0.7 -1.21,1.03 -1.7,1.03 -0.47,0 -1,-0.33 -1.68,-1.03 A 15.2,15.2 0 0 1 3,9.43 C 2.53,8.69 1,6.13 1,4.22 1,2.8 1.57,1.68 2.65,0.97 A 6.75,6.75 0 0 1 6.34,0.09 Z m 0,0.03 C 5.78,0.15 5.24,0.2 4.79,0.31 A 5.82,5.82 0 0 0 3.19,0.97 3.65,3.65 0 0 0 1.95,2.33 3.7,3.7 0 0 0 1.63,3.21 4.61,4.61 0 0 0 1.77,5.74 c 0.15,0.52 0.36,1.04 0.58,1.52 0.44,0.97 0.95,1.8 1.18,2.17 0.54,0.84 1.13,1.6 1.65,2.15 0.34,0.35 0.64,0.61 0.92,0.78 a 0.96,0.96 0 0 0 0.24,0.1 0.96,0.96 0 0 0 0.24,-0.1 4.76,4.76 0 0 0 0.92,-0.78 14.41,14.41 0 0 0 1.65,-2.15 c 0.23,-0.37 0.74,-1.2 1.18,-2.17 0.22,-0.48 0.43,-1 0.58,-1.52 A 4.6,4.6 0 0 0 11.05,3.22 3.73,3.73 0 0 0 10.21,1.58 3.65,3.65 0 0 0 8.76,0.58 6.83,6.83 0 0 0 6.34,0.13 Z"
     id="path70"
     inkscape:connector-curvature="0"
     style="opacity:0.2" />
  <ellipse
     ry="1.03"
     rx="1.02"
     cy="5.8800001"
     cx="6.3099999"
     id="ellipse72"
     style="fill:#4d4d4d" />
</svg>
